X:1
T:New Sabbath, LM
T:New Sabbath, LM
T:Miller, 1810
T:Public Domain Courtesy of the Cyber Hymnal™
C:Miller, 1810
Z:Public Domain
Z:Courtesy of the Cyber Hymnal™
%%score ( 1 2 ) ( 3 4 )
L:1/8
Q:1/4=170
M:3/2
K:D
V:1 treble 
V:2 treble 
V:3 bass 
V:4 bass 
V:1
 [Dd]4 | (A3 B A4) (A3 G) | (F3 G A4) [Dd]4 | (B2 e2 [Fd]4) [Ec]4 | [Fd]8 [Af]4 | (e3 c A4) [Af]4 | %6
 (e3 c A4) [Ad]4 | ([GB]3 [FA] [EG]4) [DF]4 | ([DF]4 [CE]4) [DA]4 | [DB]8 [Gc]4 | [Fd]8 [EA]4 | %11
 ([DB]4 [Ge]4) [Fd]4 | ([Fd]4 [GB]4) [Ac]4 | ([FA]3 [EG] [DF]2 [FA]2) (d2 f2) | %14
 ([Af]4 [Ge]4) [Ed]4 | ([Ge][Af][Bg][Ge] [Fd]4) [Ec]4 | [Fd]8 |] %17
V:2
 x4 | D8 D4 | D8 x4 | G4 x8 | x12 | A8 x4 | A8 x4 | x12 | x12 | x12 | x12 | x12 | x12 | x8 A4 | %14
 x12 | x12 | x8 |] %17
V:3
 [D,A,]4 | (F,3 G, F,4) (F,3 E,) | (D,3 E, F,4) [F,A,]4 | ([G,B,]4 A,4) [A,,A,]4 | [D,A,]8 [D,D]4 | %5
 (E3 F E4) [D,D]4 | (E3 F E4) [F,F]4 | ([G,D]3 [F,C] [E,B,]4) [D,A,]4 | [A,,A,]8 [F,F]4 | %9
 [G,D]8 [E,E]4 | [D,F]8 [A,E]4 | D4 [E,E]4 [D,F]4 | F4 E4 [D,F]4 | [D,D]8 [D,D]4 | %14
 ([D,D]4 [A,E]4) [B,F]4 | [G,B,]8 A,4 | [D,D]8 |] %17
V:4
 x4 | D,8 D,4 | D,8 x4 | x4 A,4 x4 | x12 | A,8 x4 | A,8 x4 | x12 | x12 | x12 | x12 | G,3 F, x8 | %12
 A,8 x4 | x12 | x12 | x8 A,4 | x8 |] %17

